exports/global-co2-concentration-ppm_v3_850x600.svg

<svg xmlns="http://www.w3.org/2000/svg" version="1.1" style="background-color:#fff;-webkit-font-smoothing:antialiased" width="850" height="600" font-family="'Helvetica Neue',Helvetica,Arial,sans-serif" font-size="18" text-rendering="optimizeLegibility"><g class="ChartTab"><g class="HeaderView"><g opacity=".8" transform="matrix(.27 0 0 .27 778 15)"><a xmlns:xlink="http://www.w3.org/1999/xlink" xlink:href="https://ourworldindata.org" target="_blank"><g><path fill="#1B2543" d="M0 0h211.2v130.1H0z"/><path fill="#E63912" d="M0 112.2h211.2v17.9H0z"/><g><path fill="none" d="M1.2 12.3h210.2v99.2H1.2z"/><path fill="#FFF" d="M37.8 32.2c0 12.7-7.7 19.4-17.1 19.4-9.7 0-16.6-7.5-16.6-18.7 0-11.7 7.3-19.3 17.1-19.3 10.1.1 16.6 7.7 16.6 18.6zm-28.6.6c0 7.9 4.3 14.9 11.8 14.9 7.5 0 11.8-6.9 11.8-15.3 0-7.3-3.8-14.9-11.8-14.9-7.9 0-11.8 7.3-11.8 15.3zM62.7 43.8c0 2.7.1 5.1.2 7.2h-4.3l-.3-4.3h-.1c-1.3 2.1-4 4.9-8.8 4.9-4.2 0-9.1-2.3-9.1-11.6V24.6h4.8v14.6c0 5 1.5 8.4 5.9 8.4 3.2 0 5.5-2.2 6.3-4.4.3-.7.4-1.6.4-2.5V24.6h4.8v19.2zM67.3 32.8c0-3.1-.1-5.8-.2-8.2h4.2l.2 5.2h.2c1.2-3.5 4.1-5.8 7.3-5.8.5 0 .9.1 1.4.2v4.5c-.5-.1-1-.2-1.6-.2-3.4 0-5.8 2.6-6.5 6.2-.1.7-.2 1.4-.2 2.2V51h-4.8V32.8zM95.4 51L86 14.2h5l4.4 18.6c1.1 4.6 2.1 9.2 2.7 12.7h.1c.6-3.7 1.8-8 3-12.8l4.9-18.5h5l4.5 18.7c1 4.4 2 8.7 2.6 12.6h.1c.8-4 1.8-8.1 3-12.7l4.9-18.5h4.9L120.6 51h-5L111 31.9c-1.1-4.7-1.9-8.3-2.4-12h-.1c-.7 3.7-1.5 7.3-2.8 12L100.4 51h-5zM154.9 37.6c0 9.8-6.8 14-13.2 14-7.2 0-12.7-5.2-12.7-13.6 0-8.8 5.8-14 13.1-14 7.7 0 12.8 5.5 12.8 13.6zm-21 .3c0 5.8 3.3 10.1 8 10.1 4.6 0 8-4.3 8-10.3 0-4.5-2.2-10.1-7.9-10.1s-8.1 5.2-8.1 10.3zM158.2 32.8c0-3.1-.1-5.8-.2-8.2h4.2l.2 5.2h.2c1.2-3.5 4.1-5.8 7.3-5.8.5 0 .9.1 1.4.2v4.5c-.5-.1-1-.2-1.6-.2-3.4 0-5.8 2.6-6.5 6.2-.1.7-.2 1.4-.2 2.2V51h-4.8V32.8zM173.5 12.3h4.8V51h-4.8V12.3zM206.5 12.3v31.9c0 2.3.1 5 .2 6.8h-4.3l-.2-4.6h-.2c-1.5 2.9-4.7 5.2-9 5.2-6.4 0-11.3-5.4-11.3-13.4-.1-8.8 5.4-14.2 11.9-14.2 4 0 6.8 1.9 8 4h.1V12.3h4.8zm-4.8 23.1c0-.6-.1-1.4-.2-2a7 7 0 00-6.9-5.6c-5 0-7.9 4.4-7.9 10.2 0 5.3 2.6 9.8 7.8 9.8 3.2 0 6.2-2.1 7.1-5.7.2-.7.2-1.3.2-2.1v-4.6zM42.8 64c.1 1.6-1.1 2.9-3.1 2.9-1.7 0-2.9-1.3-2.9-2.9 0-1.7 1.3-3 3-3 1.9 0 3 1.3 3 3zm-5.4 33.8V71.4h4.8v26.4h-4.8zM47.5 78.6c0-2.7-.1-5-.2-7.1h4.3l.3 4.4h.1c1.3-2.5 4.4-5 8.8-5 3.7 0 9.4 2.2 9.4 11.2v15.8h-4.8V82.6c0-4.3-1.6-7.8-6.1-7.8-3.2 0-5.6 2.2-6.5 4.9-.2.6-.3 1.4-.3 2.2v15.9h-4.8V78.6zM84 61.6c2.9-.4 6.3-.8 10.1-.8 6.8 0 11.7 1.6 14.9 4.6 3.3 3 5.2 7.3 5.2 13.2 0 6-1.9 10.9-5.3 14.3-3.4 3.4-9.1 5.3-16.3 5.3-3.4 0-6.2-.2-8.6-.4V61.6zm4.8 32.5c1.2.2 3 .3 4.8.3 10.2 0 15.7-5.7 15.7-15.6.1-8.7-4.9-14.2-14.9-14.2-2.5 0-4.3.2-5.6.5v29zM132.1 97.8l-.4-3.3h-.2a9.79 9.79 0 01-8.1 3.9c-5.4 0-8.1-3.8-8.1-7.6 0-6.4 5.7-9.9 15.9-9.8v-.5c0-2.2-.6-6.1-6-6.1-2.5 0-5 .8-6.9 2l-1.1-3.2c2.2-1.4 5.4-2.3 8.7-2.3 8.1 0 10.1 5.5 10.1 10.8v9.9c0 2.3.1 4.5.4 6.3h-4.3zm-.7-13.4c-5.3-.1-11.2.8-11.2 5.9 0 3.1 2.1 4.6 4.5 4.6 3.4 0 5.6-2.2 6.4-4.4.2-.5.3-1 .3-1.5v-4.6zM146.6 63.9v7.6h6.9v3.7h-6.9v14.2c0 3.3.9 5.1 3.6 5.1 1.3 0 2.2-.2 2.8-.3l.2 3.6c-.9.4-2.4.7-4.3.7-2.2 0-4-.7-5.2-2-1.4-1.4-1.9-3.8-1.9-6.9V75.1h-4.1v-3.7h4.1v-6.3l4.8-1.2zM171.4 97.8l-.4-3.3h-.2a9.79 9.79 0 01-8.1 3.9c-5.4 0-8.1-3.8-8.1-7.6 0-6.4 5.7-9.9 15.9-9.8v-.5c0-2.2-.6-6.1-6-6.1-2.5 0-5 .8-6.9 2l-1.1-3.2c2.2-1.4 5.4-2.3 8.7-2.3 8.1 0 10.1 5.5 10.1 10.8v9.9c0 2.3.1 4.5.4 6.3h-4.3zm-.7-13.4c-5.3-.1-11.2.8-11.2 5.9 0 3.1 2.1 4.6 4.5 4.6 3.4 0 5.6-2.2 6.4-4.4.2-.5.3-1 .3-1.5v-4.6z"/></g></g></a></g><a href="https://ourworldindata.org/grapher/global-co-concentration-ppm" target="_blank"><text font-size="25.2" x="15" y="35.2" fill="#555"><tspan x="15" y="35.16">Global CO₂ atmospheric concentration</tspan></text></a><text font-size="14.4" x="15" y="53.7" fill="#666"><tspan x="15" y="53.72">Global mean annual concentration of carbon dioxide (CO₂) measured in parts per million (ppm).</tspan></text></g><g class="LineChart"><defs><clipPath id="a"><path d="M73.34 0h830v959.8h-830z"/></clipPath></defs><g class="AxisBoxView"><g class="HorizontalAxis" fill="#666" text-anchor="middle" font-size="16.2"><text x="83.3" y="556.5">1959</text><text x="212.6" y="556.5">1970</text><text x="330.1" y="556.5">1980</text><text x="447.6" y="556.5">1990</text><text x="565" y="556.5">2000</text><text x="682.5" y="556.5">2010</text><text x="764.8" y="556.5">2017</text></g><g class="VerticalAxis" fill="#666" dominant-baseline="middle" text-anchor="end" font-size="16.2"><text x="78.34" y="535.3">300 ppm</text><text x="78.34" y="449.2">320 ppm</text><text x="78.34" y="363.1">340 ppm</text><text x="78.34" y="277">360 ppm</text><text x="78.34" y="190.9">380 ppm</text><text x="78.34" y="104.8">400 ppm</text></g><g class="AxisGridLines" stroke="#ddd" stroke-dasharray="3,2"><path d="M83.34 535.3h681.42M83.34 449.2h681.42M83.34 363.1h681.42M83.34 277h681.42M83.34 190.9h681.42M83.34 104.8h681.42"/></g></g><g clip-path="url(#a)"><g class="HeightedLegend clickable"><g class="legendMark"><text font-size="13.5" x="769.8" y="80.6" fill="#3360a9"><tspan x="769.76" y="80.65">World</tspan></text></g></g><g class="Lines"><g class="key-World_0"><path stroke="#3360a9" stroke-linecap="round" d="M83 467l12-4 12-4 12-3 11-2 12-3 12-2 12-6 11-3 12-4 12-7 12-4 11-3 12-5 12-9 12-3 11-4 12-4 12-7 12-7 11-6 12-8 12-6 12-6 11-7 12-7 12-6 12-6 11-7 12-11 12-6 12-6 11-5 12-4 12-2 12-8 11-8 12-8 12-5 12-13 11-7 12-5 12-7 12-9 11-11 12-7 12-10 12-9 11-8 12-8 12-8 12-11 11-7 12-10 12-11 12-9 11-10 12-14 12-10" fill="none" stroke-width="1.5"/><g fill="#3360a9"><circle cx="83" cy="467" r="2"/><circle cx="95" cy="463" r="2"/><circle cx="107" cy="459" r="2"/><circle cx="119" cy="456" r="2"/><circle cx="130" cy="454" r="2"/><circle cx="142" cy="451" r="2"/><circle cx="154" cy="449" r="2"/><circle cx="166" cy="443" r="2"/><circle cx="177" cy="440" r="2"/><circle cx="189" cy="436" r="2"/><circle cx="201" cy="429" r="2"/><circle cx="213" cy="425" r="2"/><circle cx="224" cy="422" r="2"/><circle cx="236" cy="417" r="2"/><circle cx="248" cy="408" r="2"/><circle cx="260" cy="405" r="2"/><circle cx="271" cy="401" r="2"/><circle cx="283" cy="397" r="2"/><circle cx="295" cy="390" r="2"/><circle cx="307" cy="383" r="2"/><circle cx="318" cy="377" r="2"/><circle cx="330" cy="369" r="2"/><circle cx="342" cy="363" r="2"/><circle cx="354" cy="357" r="2"/><circle cx="365" cy="350" r="2"/><circle cx="377" cy="343" r="2"/><circle cx="389" cy="337" r="2"/><circle cx="401" cy="331" r="2"/><circle cx="412" cy="324" r="2"/><circle cx="424" cy="313" r="2"/><circle cx="436" cy="307" r="2"/><circle cx="448" cy="301" r="2"/><circle cx="459" cy="296" r="2"/><circle cx="471" cy="292" r="2"/><circle cx="483" cy="290" r="2"/><circle cx="495" cy="282" r="2"/><circle cx="506" cy="274" r="2"/><circle cx="518" cy="266" r="2"/><circle cx="530" cy="261" r="2"/><circle cx="542" cy="248" r="2"/><circle cx="553" cy="241" r="2"/><circle cx="565" cy="236" r="2"/><circle cx="577" cy="229" r="2"/><circle cx="589" cy="220" r="2"/><circle cx="600" cy="209" r="2"/><circle cx="612" cy="202" r="2"/><circle cx="624" cy="192" r="2"/><circle cx="636" cy="183" r="2"/><circle cx="647" cy="175" r="2"/><circle cx="659" cy="167" r="2"/><circle cx="671" cy="159" r="2"/><circle cx="683" cy="148" r="2"/><circle cx="694" cy="141" r="2"/><circle cx="706" cy="131" r="2"/><circle cx="718" cy="120" r="2"/><circle cx="730" cy="111" r="2"/><circle cx="741" cy="101" r="2"/><circle cx="753" cy="87" r="2"/><circle cx="765" cy="77" r="2"/></g></g></g></g></g><g class="SourcesFooter" fill="#777"><g class="clickable" fill="#777"><text font-size="12.6" x="15" y="581.6"><tspan x="15" y="581.58">Source: NOAA/ESRL (2018)</tspan></text></g><text font-size="12.6" x="407.4" y="581.6"><tspan x="407.36" y="581.58"><a target="_blank" href="https://ourworldindata.org/co2-and-other-greenhouse-gas-emissions/" fill="#777">OurWorldInData.org/co2-and-other-greenhouse-gas-emissions/</a> • <a class="cclogo" href="http://creativecommons.org/licenses/by-sa/4.0/deed.en_US" target="_blank" fill="#777">CC BY-SA</a></tspan></text></g></g></svg>

<svg xmlns="http://www.w3.org/2000/svg" version="1.1" style="font-family: 'Helvetica Neue', Helvetica, Arial, sans-serif; font-size: 18px; background-color: white; text-rendering: optimizeLegibility; -webkit-font-smoothing: antialiased;" width="850" height="600"><g class="ChartTab"><g class="HeaderView"><g opacity="0.8" transform="translate(778, 15) scale(0.27)"><a xmlns:xlink="http://www.w3.org/1999/xlink" xlink:href="https://ourworldindata.org" target="_blank"><g><rect x="0" y="0" fill="#1B2543" width="211.2" height="130.1"/><rect x="0" y="112.2" fill="#E63912" width="211.2" height="17.9"/><g><rect x="1.2" y="12.3" fill="none" width="210.2" height="99.2"/><path fill="#FFFFFF" d="M37.8,32.2c0,12.7-7.7,19.4-17.1,19.4c-9.7,0-16.6-7.5-16.6-18.7c0-11.7,7.3-19.3,17.1-19.3 C31.3,13.7,37.8,21.3,37.8,32.2z M9.2,32.8c0,7.9,4.3,14.9,11.8,14.9c7.5,0,11.8-6.9,11.8-15.3c0-7.3-3.8-14.9-11.8-14.9 C13.1,17.5,9.2,24.8,9.2,32.8z"/><path fill="#FFFFFF" d="M62.7,43.8c0,2.7,0.1,5.1,0.2,7.2h-4.3l-0.3-4.3h-0.1c-1.3,2.1-4,4.9-8.8,4.9c-4.2,0-9.1-2.3-9.1-11.6 V24.6h4.8v14.6c0,5,1.5,8.4,5.9,8.4c3.2,0,5.5-2.2,6.3-4.4c0.3-0.7,0.4-1.6,0.4-2.5V24.6h4.8V43.8z"/><path fill="#FFFFFF" d="M67.3,32.8c0-3.1-0.1-5.8-0.2-8.2h4.2l0.2,5.2h0.2c1.2-3.5,4.1-5.8,7.3-5.8c0.5,0,0.9,0.1,1.4,0.2v4.5 c-0.5-0.1-1-0.2-1.6-0.2c-3.4,0-5.8,2.6-6.5,6.2c-0.1,0.7-0.2,1.4-0.2,2.2V51h-4.8V32.8z"/><path fill="#FFFFFF" d="M95.4,51l-9.4-36.8h5l4.4,18.6c1.1,4.6,2.1,9.2,2.7,12.7h0.1c0.6-3.7,1.8-8,3-12.8l4.9-18.5h5l4.5,18.7 c1,4.4,2,8.7,2.6,12.6h0.1c0.8-4,1.8-8.1,3-12.7l4.9-18.5h4.9L120.6,51h-5L111,31.9c-1.1-4.7-1.9-8.3-2.4-12h-0.1 c-0.7,3.7-1.5,7.3-2.8,12L100.4,51H95.4z"/><path fill="#FFFFFF" d="M154.9,37.6c0,9.8-6.8,14-13.2,14c-7.2,0-12.7-5.2-12.7-13.6c0-8.8,5.8-14,13.1-14 C149.8,24,154.9,29.5,154.9,37.6z M133.9,37.9c0,5.8,3.3,10.1,8,10.1c4.6,0,8-4.3,8-10.3c0-4.5-2.2-10.1-7.9-10.1 C136.3,27.6,133.9,32.8,133.9,37.9z"/><path fill="#FFFFFF" d="M158.2,32.8c0-3.1-0.1-5.8-0.2-8.2h4.2l0.2,5.2h0.2c1.2-3.5,4.1-5.8,7.3-5.8c0.5,0,0.9,0.1,1.4,0.2v4.5 c-0.5-0.1-1-0.2-1.6-0.2c-3.4,0-5.8,2.6-6.5,6.2c-0.1,0.7-0.2,1.4-0.2,2.2V51h-4.8V32.8z"/><path fill="#FFFFFF" d="M173.5,12.3h4.8V51h-4.8V12.3z"/><path fill="#FFFFFF" d="M206.5,12.3v31.9c0,2.3,0.1,5,0.2,6.8h-4.3l-0.2-4.6H202c-1.5,2.9-4.7,5.2-9,5.2 c-6.4,0-11.3-5.4-11.3-13.4c-0.1-8.8,5.4-14.2,11.9-14.2c4,0,6.8,1.9,8,4h0.1V12.3H206.5z M201.7,35.4c0-0.6-0.1-1.4-0.2-2 c-0.7-3.1-3.3-5.6-6.9-5.6c-5,0-7.9,4.4-7.9,10.2c0,5.3,2.6,9.8,7.8,9.8c3.2,0,6.2-2.1,7.1-5.7c0.2-0.7,0.2-1.3,0.2-2.1V35.4z"/><path fill="#FFFFFF" d="M42.8,64c0.1,1.6-1.1,2.9-3.1,2.9c-1.7,0-2.9-1.3-2.9-2.9c0-1.7,1.3-3,3-3C41.7,61,42.8,62.3,42.8,64z M37.4,97.8V71.4h4.8v26.4H37.4z"/><path fill="#FFFFFF" d="M47.5,78.6c0-2.7-0.1-5-0.2-7.1h4.3l0.3,4.4h0.1c1.3-2.5,4.4-5,8.8-5c3.7,0,9.4,2.2,9.4,11.2v15.8h-4.8 V82.6c0-4.3-1.6-7.8-6.1-7.8c-3.2,0-5.6,2.2-6.5,4.9c-0.2,0.6-0.3,1.4-0.3,2.2v15.9h-4.8V78.6z"/><path fill="#FFFFFF" d="M84,61.6c2.9-0.4,6.3-0.8,10.1-0.8c6.8,0,11.7,1.6,14.9,4.6c3.3,3,5.2,7.3,5.2,13.2c0,6-1.9,10.9-5.3,14.3 c-3.4,3.4-9.1,5.3-16.3,5.3c-3.4,0-6.2-0.2-8.6-0.4V61.6z M88.8,94.1c1.2,0.2,3,0.3,4.8,0.3c10.2,0,15.7-5.7,15.7-15.6 c0.1-8.7-4.9-14.2-14.9-14.2c-2.5,0-4.3,0.2-5.6,0.5V94.1z"/><path fill="#FFFFFF" d="M132.1,97.8l-0.4-3.3h-0.2c-1.5,2.1-4.3,3.9-8.1,3.9c-5.4,0-8.1-3.8-8.1-7.6c0-6.4,5.7-9.9,15.9-9.8v-0.5 c0-2.2-0.6-6.1-6-6.1c-2.5,0-5,0.8-6.9,2l-1.1-3.2c2.2-1.4,5.4-2.3,8.7-2.3c8.1,0,10.1,5.5,10.1,10.8v9.9c0,2.3,0.1,4.5,0.4,6.3 H132.1z M131.4,84.4c-5.3-0.1-11.2,0.8-11.2,5.9c0,3.1,2.1,4.6,4.5,4.6c3.4,0,5.6-2.2,6.4-4.4c0.2-0.5,0.3-1,0.3-1.5V84.4z"/><path fill="#FFFFFF" d="M146.6,63.9v7.6h6.9v3.7h-6.9v14.2c0,3.3,0.9,5.1,3.6,5.1c1.3,0,2.2-0.2,2.8-0.3l0.2,3.6 c-0.9,0.4-2.4,0.7-4.3,0.7c-2.2,0-4-0.7-5.2-2c-1.4-1.4-1.9-3.8-1.9-6.9V75.1h-4.1v-3.7h4.1v-6.3L146.6,63.9z"/><path fill="#FFFFFF" d="M171.4,97.8l-0.4-3.3h-0.2c-1.5,2.1-4.3,3.9-8.1,3.9c-5.4,0-8.1-3.8-8.1-7.6c0-6.4,5.7-9.9,15.9-9.8v-0.5 c0-2.2-0.6-6.1-6-6.1c-2.5,0-5,0.8-6.9,2l-1.1-3.2c2.2-1.4,5.4-2.3,8.7-2.3c8.1,0,10.1,5.5,10.1,10.8v9.9c0,2.3,0.1,4.5,0.4,6.3 H171.4z M170.7,84.4c-5.3-0.1-11.2,0.8-11.2,5.9c0,3.1,2.1,4.6,4.5,4.6c3.4,0,5.6-2.2,6.4-4.4c0.2-0.5,0.3-1,0.3-1.5V84.4z"/></g></g></a></g><a href="https://ourworldindata.org/grapher/global-co-concentration-ppm" target="_blank"><text font-size="25.20" x="15.0" y="35.2" fill="#555"><tspan x="15" y="35.160000000000004">Global CO₂ atmospheric concentration</tspan></text></a><text font-size="14.40" x="15.0" y="53.7" fill="#666"><tspan x="15" y="53.72">Global mean annual concentration of carbon dioxide (CO₂) measured in parts per million (ppm).</tspan></text></g><g class="LineChart"><defs><clipPath id="boundsClip-1"><rect x="73.342" y="0" width="830" height="959.8"></rect></clipPath></defs><g class="AxisBoxView"><g class="HorizontalAxis"><text x="83.3" y="556.5" fill="#666" text-anchor="middle" font-size="16.2">1959</text><text x="212.6" y="556.5" fill="#666" text-anchor="middle" font-size="16.2">1970</text><text x="330.1" y="556.5" fill="#666" text-anchor="middle" font-size="16.2">1980</text><text x="447.6" y="556.5" fill="#666" text-anchor="middle" font-size="16.2">1990</text><text x="565" y="556.5" fill="#666" text-anchor="middle" font-size="16.2">2000</text><text x="682.5" y="556.5" fill="#666" text-anchor="middle" font-size="16.2">2010</text><text x="764.8" y="556.5" fill="#666" text-anchor="middle" font-size="16.2">2017</text></g><g class="VerticalAxis"><text x="78.34" y="535.3" fill="#666" dominant-baseline="middle" text-anchor="end" font-size="16.2">300 ppm</text><text x="78.34" y="449.2" fill="#666" dominant-baseline="middle" text-anchor="end" font-size="16.2">320 ppm</text><text x="78.34" y="363.1" fill="#666" dominant-baseline="middle" text-anchor="end" font-size="16.2">340 ppm</text><text x="78.34" y="277" fill="#666" dominant-baseline="middle" text-anchor="end" font-size="16.2">360 ppm</text><text x="78.34" y="190.9" fill="#666" dominant-baseline="middle" text-anchor="end" font-size="16.2">380 ppm</text><text x="78.34" y="104.8" fill="#666" dominant-baseline="middle" text-anchor="end" font-size="16.2">400 ppm</text></g><g class="AxisGridLines"><line x1="83.34" y1="535.3" x2="764.76" y2="535.3" stroke="#ddd" stroke-dasharray="3,2"></line><line x1="83.34" y1="449.2" x2="764.76" y2="449.2" stroke="#ddd" stroke-dasharray="3,2"></line><line x1="83.34" y1="363.1" x2="764.76" y2="363.1" stroke="#ddd" stroke-dasharray="3,2"></line><line x1="83.34" y1="277" x2="764.76" y2="277" stroke="#ddd" stroke-dasharray="3,2"></line><line x1="83.34" y1="190.9" x2="764.76" y2="190.9" stroke="#ddd" stroke-dasharray="3,2"></line><line x1="83.34" y1="104.8" x2="764.76" y2="104.8" stroke="#ddd" stroke-dasharray="3,2"></line></g></g><g clip-path="url(#boundsClip-1)"><g class="HeightedLegend clickable"><g class="legendMark"><rect x="764.765" y="69.85" width="70.235" height="13.5" fill="#fff" opacity="0"></rect><text font-size="13.50" x="769.8" y="80.6" fill="#3360a9"><tspan x="769.765" y="80.64999999999999">World</tspan></text></g></g><g class="Lines"><rect x="83" y="77" width="681" height="459" fill="rgba(255,255,255,0)" opacity="0"></rect><g class="key-World_0"><path stroke="#3360a9" stroke-linecap="round" d="M83 467L95 463L107 459L119 456L130 454L142 451L154 449L166 443L177 440L189 436L201 429L213 425L224 422L236 417L248 408L260 405L271 401L283 397L295 390L307 383L318 377L330 369L342 363L354 357L365 350L377 343L389 337L401 331L412 324L424 313L436 307L448 301L459 296L471 292L483 290L495 282L506 274L518 266L530 261L542 248L553 241L565 236L577 229L589 220L600 209L612 202L624 192L636 183L647 175L659 167L671 159L683 148L694 141L706 131L718 120L730 111L741 101L753 87L765 77" fill="none" stroke-width="1.5"></path><g fill="#3360a9"><circle cx="83" cy="467" r="2"></circle><circle cx="95" cy="463" r="2"></circle><circle cx="107" cy="459" r="2"></circle><circle cx="119" cy="456" r="2"></circle><circle cx="130" cy="454" r="2"></circle><circle cx="142" cy="451" r="2"></circle><circle cx="154" cy="449" r="2"></circle><circle cx="166" cy="443" r="2"></circle><circle cx="177" cy="440" r="2"></circle><circle cx="189" cy="436" r="2"></circle><circle cx="201" cy="429" r="2"></circle><circle cx="213" cy="425" r="2"></circle><circle cx="224" cy="422" r="2"></circle><circle cx="236" cy="417" r="2"></circle><circle cx="248" cy="408" r="2"></circle><circle cx="260" cy="405" r="2"></circle><circle cx="271" cy="401" r="2"></circle><circle cx="283" cy="397" r="2"></circle><circle cx="295" cy="390" r="2"></circle><circle cx="307" cy="383" r="2"></circle><circle cx="318" cy="377" r="2"></circle><circle cx="330" cy="369" r="2"></circle><circle cx="342" cy="363" r="2"></circle><circle cx="354" cy="357" r="2"></circle><circle cx="365" cy="350" r="2"></circle><circle cx="377" cy="343" r="2"></circle><circle cx="389" cy="337" r="2"></circle><circle cx="401" cy="331" r="2"></circle><circle cx="412" cy="324" r="2"></circle><circle cx="424" cy="313" r="2"></circle><circle cx="436" cy="307" r="2"></circle><circle cx="448" cy="301" r="2"></circle><circle cx="459" cy="296" r="2"></circle><circle cx="471" cy="292" r="2"></circle><circle cx="483" cy="290" r="2"></circle><circle cx="495" cy="282" r="2"></circle><circle cx="506" cy="274" r="2"></circle><circle cx="518" cy="266" r="2"></circle><circle cx="530" cy="261" r="2"></circle><circle cx="542" cy="248" r="2"></circle><circle cx="553" cy="241" r="2"></circle><circle cx="565" cy="236" r="2"></circle><circle cx="577" cy="229" r="2"></circle><circle cx="589" cy="220" r="2"></circle><circle cx="600" cy="209" r="2"></circle><circle cx="612" cy="202" r="2"></circle><circle cx="624" cy="192" r="2"></circle><circle cx="636" cy="183" r="2"></circle><circle cx="647" cy="175" r="2"></circle><circle cx="659" cy="167" r="2"></circle><circle cx="671" cy="159" r="2"></circle><circle cx="683" cy="148" r="2"></circle><circle cx="694" cy="141" r="2"></circle><circle cx="706" cy="131" r="2"></circle><circle cx="718" cy="120" r="2"></circle><circle cx="730" cy="111" r="2"></circle><circle cx="741" cy="101" r="2"></circle><circle cx="753" cy="87" r="2"></circle><circle cx="765" cy="77" r="2"></circle></g></g></g></g></g><g style="fill: #777;" class="SourcesFooter"><g style="fill: #777;" class="clickable"><text font-size="12.60" x="15.0" y="581.6"><tspan x="15" y="581.58">Source: NOAA/ESRL (2018)</tspan></text></g><text font-size="12.60" x="407.4" y="581.6"><tspan x="407.356" y="581.58"><a target='_blank' style='fill: #777;' href='https://ourworldindata.org/co2-and-other-greenhouse-gas-emissions/'>OurWorldInData.org/co2-and-other-greenhouse-gas-emissions/</a> • <a style="fill: #777;" class="cclogo" href="http://creativecommons.org/licenses/by-sa/4.0/deed.en_US" target="_blank">CC BY-SA</a></tspan></text></g></g></svg>
